src/assets/outline/EmptyWalletTime.svg

<svg width="24" height="24" viewBox="0 0 24 24"  xmlns="http://www.w3.org/2000/svg">
<path d="M17.74 22.75H7.64001C7.33001 22.75 7.05002 22.56 6.94002 22.26C6.83002 21.96 6.91001 21.64 7.15001 21.43C7.85001 20.81 8.26001 19.92 8.26001 18.99C8.26001 17.2 6.80001 15.74 5.01001 15.74C4.27001 15.74 3.57001 15.99 2.98001 16.46C2.75001 16.64 2.45002 16.67 2.19002 16.55C1.93002 16.43 1.77002 16.16 1.77002 15.87V11.5C1.77002 9.01 3.79001 6.98999 6.28001 6.98999H17.76C20.25 6.98999 22.27 9.01 22.27 11.5V12.94C22.27 13.35 21.93 13.69 21.52 13.69H19.5C19.15 13.69 18.83 13.82 18.6 14.06L18.59 14.07C18.31 14.34 18.18 14.71 18.21 15.09C18.27 15.75 18.9 16.28 19.62 16.28H21.52C21.93 16.28 22.27 16.62 22.27 17.03V18.22C22.25 20.73 20.23 22.75 17.74 22.75ZM9.18001 21.25H17.74C19.4 21.25 20.75 19.9 20.75 18.24V17.8H19.6C18.09 17.8 16.81 16.68 16.69 15.24C16.61 14.42 16.91 13.61 17.51 13.02C18.03 12.49 18.73 12.2 19.48 12.2H20.75V11.51C20.75 9.85001 19.4 8.5 17.74 8.5H6.26001C4.60001 8.5 3.25002 9.85001 3.25002 11.51V14.59C3.81002 14.37 4.40002 14.25 5.00002 14.25C7.62002 14.25 9.75002 16.38 9.75002 19C9.75002 19.79 9.55001 20.57 9.18001 21.25Z" />
<path d="M2.5 12.2601C2.09 12.2601 1.75 11.9201 1.75 11.5101V7.84011C1.75 6.35011 2.68001 4.99005 4.07001 4.47005L12.01 1.47005C12.83 1.17005 13.75 1.28011 14.46 1.78011C15.17 2.28011 15.6 3.09009 15.6 3.95009V7.75008C15.6 8.16008 15.26 8.50008 14.85 8.50008C14.44 8.50008 14.1 8.16008 14.1 7.75008V3.95009C14.1 3.57009 13.92 3.23009 13.61 3.01009C13.29 2.79009 12.9 2.74008 12.54 2.87008L4.60001 5.87008C3.78001 6.18008 3.25 6.95011 3.25 7.84011V11.5101C3.25 11.9201 2.91 12.2601 2.5 12.2601Z" />
<path d="M19.6 17.7999C18.09 17.7999 16.81 16.6799 16.69 15.2399C16.61 14.4099 16.91 13.5999 17.51 13.0099C18.02 12.4899 18.72 12.2 19.47 12.2H21.55C22.54 12.23 23.3 13.0099 23.3 13.9699V16.03C23.3 16.99 22.54 17.7699 21.58 17.7999H19.6ZM21.53 13.7H19.48C19.13 13.7 18.81 13.8299 18.58 14.0699C18.29 14.3499 18.15 14.7299 18.19 15.1099C18.25 15.7699 18.88 16.2999 19.6 16.2999H21.56C21.69 16.2999 21.81 16.18 21.81 16.03V13.9699C21.81 13.8199 21.69 13.71 21.53 13.7Z" />
<path d="M14 12.75H7C6.59 12.75 6.25 12.41 6.25 12C6.25 11.59 6.59 11.25 7 11.25H14C14.41 11.25 14.75 11.59 14.75 12C14.75 12.41 14.41 12.75 14 12.75Z" />
<path d="M5 23.75C2.38 23.75 0.25 21.62 0.25 19C0.25 17.54 0.899999 16.19 2.03 15.29C2.87 14.62 3.93 14.25 5 14.25C7.62 14.25 9.75 16.38 9.75 19C9.75 20.36 9.16 21.66 8.14 22.56C7.26 23.33 6.15 23.75 5 23.75ZM5 15.75C4.26 15.75 3.56 16 2.97 16.47C2.2 17.08 1.75 18.01 1.75 19C1.75 20.79 3.21 22.25 5 22.25C5.78 22.25 6.53999 21.96 7.14999 21.44C7.84999 20.82 8.25 19.94 8.25 19C8.25 17.21 6.79 15.75 5 15.75Z" />
<path d="M3.99988 20.75C3.74988 20.75 3.49988 20.62 3.35988 20.39C3.14988 20.03 3.25988 19.57 3.61988 19.36L4.50988 18.83V17.75C4.50988 17.34 4.84988 17 5.25988 17C5.66988 17 6.00988 17.34 6.00988 17.75V19.25C6.00988 19.51 5.86988 19.76 5.64988 19.89L4.39988 20.64C4.26988 20.72 4.12988 20.75 3.99988 20.75Z" />
</svg>

<?xml version="1.0" encoding="UTF-8"?>
<svg width="24" height="24" viewBox="0 0 24 24" xmlns="http://www.w3.org/2000/svg">
 <path d="m17.74 22.75h-10.1c-0.31 0-0.58999-0.19-0.69999-0.49s-0.03001-0.62 0.20999-0.83c0.7-0.62 1.11-1.51 1.11-2.44 0-1.79-1.46-3.25-3.25-3.25-0.74 0-1.44 0.25-2.03 0.72-0.23 0.18-0.52999 0.21-0.78999 0.09s-0.42-0.39-0.42-0.68v-4.37c0-2.49 2.02-4.51 4.51-4.51h11.48c2.49 0 4.51 2.02 4.51 4.51v1.44c0 0.41-0.34 0.75-0.75 0.75h-2.02c-0.35 0-0.67 0.13-0.9 0.37l-0.01 0.01c-0.28 0.27-0.41 0.64-0.38 1.02 0.06 0.66 0.69 1.19 1.41 1.19h1.9c0.41 0 0.75 0.34 0.75 0.75v1.19c-0.02 2.51-2.04 4.53-4.53 4.53zm-8.56-1.5h8.56c1.66 0 3.01-1.35 3.01-3.01v-0.44h-1.15c-1.51 0-2.79-1.12-2.91-2.56-0.08-0.82 0.22-1.63 0.82-2.22 0.52-0.53 1.22-0.82 1.97-0.82h1.27v-0.69c0-1.66-1.35-3.01-3.01-3.01h-11.48c-1.66 0-3.01 1.35-3.01 3.01v3.08c0.56-0.22 1.15-0.34 1.75-0.34 2.62 0 4.75 2.13 4.75 4.75 0 0.79-0.20001 1.57-0.57001 2.25z"/>
 <path d="m2.5 12.26c-0.41 0-0.75-0.34-0.75-0.75v-3.67c0-1.49 0.93001-2.8501 2.32-3.3701l7.94-3c0.82-0.3 1.74-0.18994 2.45 0.31006s1.14 1.31 1.14 2.17v3.8c0 0.41-0.34 0.75-0.75 0.75s-0.75-0.34-0.75-0.75v-3.8c0-0.38-0.18-0.72-0.49-0.94-0.32-0.22-0.71-0.27001-1.07-0.14001l-7.94 3c-0.82 0.31-1.35 1.08-1.35 1.97v3.67c0 0.41-0.34 0.75-0.75 0.75z"/>
 <path d="m19.6 17.8c-1.51 0-2.79-1.12-2.91-2.56-0.08-0.83 0.22-1.64 0.82-2.23 0.51-0.52 1.21-0.8099 1.96-0.8099h2.08c0.99 0.03 1.75 0.8099 1.75 1.7699v2.0601c0 0.96-0.76 1.7399-1.72 1.7699h-1.98zm1.93-4.0999h-2.05c-0.35 0-0.67 0.1299-0.9 0.3699-0.29 0.28-0.43 0.66-0.39 1.04 0.06 0.66 0.69 1.19 1.41 1.19h1.96c0.13 0 0.25-0.1199 0.25-0.2699v-2.0601c0-0.15-0.12-0.2599-0.28-0.2699z"/>
 <path d="m14 12.75h-7c-0.41 0-0.75-0.34-0.75-0.75s0.34-0.75 0.75-0.75h7c0.41 0 0.75 0.34 0.75 0.75s-0.34 0.75-0.75 0.75z"/>
 <path d="m5 23.75c-2.62 0-4.75-2.13-4.75-4.75 0-1.46 0.65-2.81 1.78-3.71 0.84-0.67 1.9-1.04 2.97-1.04 2.62 0 4.75 2.13 4.75 4.75 0 1.36-0.59 2.66-1.61 3.56-0.88 0.77-1.99 1.19-3.14 1.19zm0-8c-0.74 0-1.44 0.25-2.03 0.72-0.77 0.61-1.22 1.54-1.22 2.53 0 1.79 1.46 3.25 3.25 3.25 0.78 0 1.54-0.29 2.15-0.81 0.7-0.62 1.1-1.5 1.1-2.44 0-1.79-1.46-3.25-3.25-3.25z"/>
 <path d="m3.9999 20.75c-0.25 0-0.5-0.13-0.64-0.36-0.21-0.36-0.1-0.82 0.26-1.03l0.89-0.53v-1.08c0-0.41 0.34-0.75 0.75-0.75s0.75 0.34 0.75 0.75v1.5c0 0.26-0.14 0.51-0.36 0.64l-1.25 0.75c-0.13 0.08-0.27 0.11-0.4 0.11z"/>
</svg>
